X:123
T:L(or)Hand Lady.? JBs.123
T:Kate Dalrymple,aka. JBs.123
S:Jas.Blackshaw MS, 1837, N.Shropshire
A:North Shropshire
Z:T. Weatherall 2006
M:C
L:1/8
Q:1/4=100
R:Reel
N:More likely to be â€œLandladyâ€.
K:C
c2c>ed2d>f|c2c>ed3e|c2a2g2fe|defde2c2:|!
|:a3b acâ€™ba|g2g2g2fe|g3a gcâ€™ba|g2g2g2fe|!
f2afe2fd|defd e3d|c2câ€™2g2fe|defde2c2:|
